!!!COM: Bach, Johann Sebastian
!!!CDT: 1685/3//-1750/7/28/
!!!OTL@@DE: Freu' dich sehr, O meine Seele
!!!AGN: 4-Part Chorale
!!!SCT: BH 282
!!!SCT: BWV 25
**harm	**root	**kern	**kern	**kern	**kern
!	!	!bass	!tenor	!alto	!soprno
*	*Iorgan	*Iorgan	*Iorgan	*Iorgan	*Iorgan
*M4/4	*M4/4	*M4/4	*M4/4	*M4/4	*M4/4
*met(c)	*met(c)	*met(c)	*met(c)	*met(c)	*met(c)
*MM60	*MM60	*MM60	*MM60	*MM60	*MM60
*k[f#c#g#d#]	*k[f#c#g#d#]	*k[f#c#g#d#]	*k[f#c#g#d#]	*k[f#c#g#d#]	*k[f#c#g#d#]
*E:	*E:	*E:	*E:	*E:	*E:
*>[A,A,B]	*>[A,A,B]	*>[A,A,B]	*>[A,A,B]	*>[A,A,B]	*>[A,A,B]
*>A	*>A	*>A	*>A	*>A	*>A
=1-	=1-	=1-	=1-	=1-	=1-
I	4CC	4E	4g#	4b	4ee
V	4GG	4B	4d#	4b	4ff#
I	4CC	4e	4e	4b	4gg#
Vb	4GG	4d#	4f#	4b	4ff#
=2	=2	=2	=2	=2	=2
vi	4AA	4c#	8g#	4cc#	4ee
.	.	.	8a#	.	.
V	4GG	4B	4b	4f#	4dd#
V/V	4DD	4F#	8b	4f#	4cc#
.	.	.	8a#	.	.
V;	4GG;	4B;	4d#;	4f#;	4b;
=3	=3	=3	=3	=3	=3
Ib	4CC	4G#	4e	4b	4ee
ii	4DD	4F#	4a	8cc#	4ff#
.	.	.	.	8dd#	.
I	4CC	4E	8b	8ee	4gg#
.	.	.	8e	8b	.
Vb	4GG	4D#	[4f#	4b	8ff#
.	.	.	.	.	16gg#
.	.	.	.	.	16aa
=4	=4	=4	=4	=4	=4
I	4CC	4E	8f#]	4b	4gg#
.	.	.	8e	.	.
V	4GG	4BB	8e	4b	8.ff#
.	.	.	8d#	.	.
.	.	.	.	.	16ee
I;	2CC;	2E;	2g#;	2b;	2ee;
*>B	*>B	*>B	*>B	*>B	*>B
=5:|!	=5:|!	=5:|!	=5:|!	=5:|!	=5:|!
I	4CC	4e	4e	4b	4gg#
IVb	4FF	4c#	4e	8cc#	4aa
.	.	.	.	16dd	.
.	.	.	.	16ee	.
I7b	4CC	4G#	4e	4dd	4bb
IV	4FF	4A	8e	4cc#	4aa
.	.	.	8f#	.	.
=6	=6	=6	=6	=6	=6
V7b/ii	4AA	4E#	8g#	4b	4gg#
.	.	.	8c#	.	.
ii	4DD	4F#	8c#	8a	4ff#
.	.	.	8d#	16cc#	.
.	.	.	.	16b#	.
VI;	2AA;	2C#;	2e#;	2cc#;	2gg#;
!!linebreak: 2
=7	=7	=7	=7	=7	=7
Ib	4CC	4G#	8e	4b	4bb
.	.	.	8f#	.	.
I	4CC	4E	4g#	4ee	4bb
IV	4FF	4A	8a	4ee	4ccc#
.	.	.	8g#	.	.
V	4GG	4B	4f#	4dd#	4bb
=8	=8	=8	=8	=8	=8
IVb	4FF	8c#	4e	4cc#	4aa
.	.	8d#	.	.	.
I	4CC	4e	4e	8b	4gg#
.	.	.	.	8a#	.
V;	2GG;	2B;	2d#;	2b;	2ff#;
=9	=9	=9	=9	=9	=9
I	4CC	4e	8e	4b	4gg#
.	.	.	8f#	.	.
I	4CC	4E	4g#	8ee	4bb
.	.	.	.	8dd#	.
ii	4DD	4F#	4a	8cc#	4aa
.	.	.	.	8dd#	.
Ib	4CC	4G#	8b	4ee	8gg#
.	.	.	8B	.	8ff#
=10	=10	=10	=10	=10	=10
IV7	4FF	4A	8c#	4cc#	4ee
.	.	.	8g#	.	.
Vb/V	4DD	4A#	8f#	4cc#	4ff#
.	.	.	8e	.	.
iiib	4EE	4B	2d#	4dd#	2gg#
Vb/vi	4EE	4B#	.	4g#	.
=11	=11	=11	=11	=11	=11
vi;	2AA;	2c#;	2c#;	2g#;	2ee;
iiiob	4EE	4B	4d	8b	4gg#
.	.	.	.	8cc#	.
V7/IV	4CC	4E	4G#	4dd	4bb
=12	=12	=12	=12	=12	=12
ii	4DD	4F#	4A	8cc#	4aa
.	.	.	.	8dd#	.
Ib	4CC	8G#	8B	4ee	4gg#
.	.	8A	8c#	.	.
V	4GG	8B	4d#	4b	4ff#
.	.	8A	.	.	.
Ib	4CC	8G#	4e	4b	4ee
.	.	8E	.	.	.
=13	=13	=13	=13	=13	=13
V	2GG	2BB	4e	2b	2ff#
.	.	.	4d#	.	.
I;	2CC;	2E;	2g#;	2b;	2ee;
==	==	==	==	==	==
*-	*-	*-	*-	*-	*-
!!chor2scor: -l 2 -s 0.6 -o %b.pmx
!!!YEC: Copyright 1994, David Huron
!!!YEC: Changes/Additions 2001 by Craig Stuart Sapp
!!!YEN: United States of America
!!!SMA: 371 Bach Chorales, edited by Ludwig Erk, C.F. Peters
!!!PDT: 1850, 1865
!!!ONB: Harmony and Root analysis done manually
